src/assets/icons/file-export.svg

<svg width="14" height="14" viewBox="0 0 14 14" fill="none" xmlns="http://www.w3.org/2000/svg">
<g id="file-export">
<g clip-path="url(#clip0_156_4503)">
<path id="Vector" fill-rule="evenodd" clip-rule="evenodd" d="M2.13889 0.194458C0.961167 0.194458 0 1.15563 0 2.33335V11.6667C0 12.8444 0.961167 13.8056 2.13889 13.8056H7.97222C9.14994 13.8056 10.1111 12.8444 10.1111 11.6667V10.5C10.1111 10.1778 9.84994 9.91668 9.52778 9.91668C9.20561 9.91668 8.94444 10.1778 8.94444 10.5V11.6667C8.94444 12.2001 8.50561 12.6389 7.97222 12.6389H2.13889C1.6055 12.6389 1.16667 12.2001 1.16667 11.6667V2.33335C1.16667 1.79996 1.6055 1.36112 2.13889 1.36112H4.66667V5.05557C4.66667 5.37774 4.92783 5.6389 5.25 5.6389H8.94444V6.61112C8.94444 6.93329 9.20561 7.19446 9.52778 7.19446C9.84994 7.19446 10.1111 6.93329 10.1111 6.61112V5.05557C10.1111 4.90086 10.0497 4.75249 9.94026 4.64309L5.66248 0.365312C5.55308 0.255916 5.40471 0.194458 5.25 0.194458H2.13889ZM8.11949 4.47224L5.83333 2.18608V4.47224H8.11949ZM10.6709 5.80976C10.8987 5.58195 11.268 5.58195 11.4958 5.80976L13.8291 8.14309C13.943 8.25699 14 8.40628 14 8.55557C14 8.63466 13.9843 8.71008 13.9557 8.77886C13.9273 8.84766 13.8851 8.91212 13.8291 8.96805L11.4958 11.3014C11.268 11.5292 10.8987 11.5292 10.6709 11.3014C10.443 11.0736 10.443 10.7042 10.6709 10.4764L12.0084 9.1389H5.25C4.92783 9.1389 4.66667 8.87773 4.66667 8.55557C4.66667 8.2334 4.92783 7.97224 5.25 7.97224H12.0084L10.6709 6.63471C10.443 6.40691 10.443 6.03756 10.6709 5.80976Z" fill="black"/>
</g>
</g>
<defs>
<clipPath id="clip0_156_4503">
<rect width="14" height="14" fill="white"/>
</clipPath>
</defs>
</svg>

<svg xmlns="http://www.w3.org/2000/svg" fill="none" viewBox="0 0 14 14"><g clip-path="url(#a)"><path fill="#000" fill-rule="evenodd" d="M2.139.194A2.143 2.143 0 0 0 0 2.334v9.333c0 1.177.961 2.139 2.139 2.139h5.833a2.143 2.143 0 0 0 2.14-2.14V10.5a.583.583 0 1 0-1.168 0v1.167a.977.977 0 0 1-.972.972H2.14a.977.977 0 0 1-.972-.972V2.333c0-.533.438-.972.972-.972h2.528v3.695c0 .322.26.583.583.583h3.694v.972a.583.583 0 1 0 1.167 0V5.056a.58.58 0 0 0-.17-.413L5.661.365a.58.58 0 0 0-.412-.17zm5.98 4.278L5.833 2.186v2.286zm2.552 1.338a.583.583 0 0 1 .825 0l2.333 2.333a.58.58 0 0 1 0 .825l-2.333 2.333a.583.583 0 1 1-.825-.825l1.337-1.337H5.25a.583.583 0 1 1 0-1.167h6.758l-1.337-1.337a.583.583 0 0 1 0-.825" clip-rule="evenodd"/></g><defs><clipPath id="a"><path fill="#fff" d="M0 0h14v14H0z"/></clipPath></defs></svg>
